src/lib/packages/icons/src/assets/filled/upload-alt.svg

<svg width="24" height="24" viewBox="0 0 24 24" fill="none" xmlns="http://www.w3.org/2000/svg">
<path d="M19.4141 21.75H5.41504C5.00104 21.75 4.66504 21.414 4.66504 21C4.66504 20.586 5.00104 20.25 5.41504 20.25H19.4141C19.8281 20.25 20.1641 20.586 20.1641 21C20.1641 21.414 19.8281 21.75 19.4141 21.75ZM8.58496 11V16C8.58496 16.552 9.03296 17 9.58496 17H15.585C16.137 17 16.585 16.552 16.585 16V11H19.0081C19.9041 11 20.339 9.90604 19.688 9.29104L13.4131 3.363C12.9011 2.879 12.0989 2.879 11.5869 3.363L5.31201 9.29104C4.66101 9.90604 5.09594 11 5.99194 11H8.58496Z" fill="currentColor"/>
</svg>

<svg xmlns="http://www.w3.org/2000/svg" width="24" height="24" fill="none"><path fill="currentColor" d="M19.414 21.75H5.415a.75.75 0 0 1 0-1.5h14a.75.75 0 0 1 0 1.5ZM8.585 11v5a1 1 0 0 0 1 1h6a1 1 0 0 0 1-1v-5h2.423c.896 0 1.331-1.094.68-1.709l-6.275-5.928a1.33 1.33 0 0 0-1.826 0L5.312 9.291c-.651.615-.216 1.709.68 1.709h2.593Z"/></svg>
